X: 32136
T: Peter Man
R: reel
M: 4/4
K: Amixolydian
c3 B ABcd|effe afed|cAdB ABBA|GAFA AGAB|
c2 cB ABcd|effe afec|A2 cA GAFA|AEDE FGAB:|
|:EBdB cBAB|EBda ^gedB|EBdB cBAB|GAFA AGAB|
EBdB cBAB|EBda ^gedB|c3 B ABBA|GAFA AGAB:|

